images/inj.svg

<svg height="250" viewBox="0 0 250 250" width="250" xmlns="http://www.w3.org/2000/svg" xmlns:xlink="http://www.w3.org/1999/xlink"><linearGradient id="a" gradientUnits="userSpaceOnUse" x1="41.6667" x2="208.3335" y1="125.0001" y2="125.0001"><stop offset="0" stop-color="#0082fa"/><stop offset="1" stop-color="#00f2fe"/></linearGradient><g fill="url(#a)"><path d="m61.875 70.472656c1.035156-1.300781 2.128906-2.550781 3.226562-3.804687.050782-.0625.160157-.074219.210938-.136719.097656-.121094.257812-.199219.355469-.320312l.101562-.125c.761719-.707032 1.578125-1.476563 2.515625-2.144532 3.316406-2.519531 6.761719-4.433594 10.390625-5.695312 11.648438-4.085938 24.613281-1.566406 34.78125 8.03125 14.195313 13.308594 12.925781 34.742187 1.589844 48.992187-14.320313 21.242188-38.929687 50.875-4.855469 77.421875 6.128906 4.773438 10.671875 8.710938 29.972656 14.285156-12.621093 2.324219-24.324218 1.601563-37.351562-1.722656-9.214844-5.203125-23.703125-16.339844-28.628906-31.378906-7.449219-22.808594 13.113281-56.902344 23.050781-70.035156 13.644531-18.171875-8.433594-37.847656-24.6875-15.882813-8.496094 11.445313-23.363281 43.835938-18.195313 67.863281 3.019532 13.621094 7.046876 23.554688 23.007813 37.195313-2.960937-1.746094-5.835937-3.726563-8.621094-5.941406-37.089843-34.550781-32.785156-87.964844-6.863281-116.601563zm0 0"/><path d="m188.125 179.527344c-1.035156 1.300781-2.128906 2.550781-3.226562 3.804687-.050782.0625-.160157.074219-.210938.136719-.097656.121094-.257812.199219-.355469.320312l-.101562.125c-.761719.707032-1.578125 1.476563-2.515625 2.144532-3.316406 2.519531-6.761719 4.433594-10.390625 5.695312-11.648438 4.085938-24.613281 1.566406-34.78125-8.03125-14.195313-13.308594-12.925781-34.742187-1.589844-48.992187 14.320313-21.242188 38.929687-50.875 4.855469-77.421875-6.128906-4.773438-10.671875-8.710938-29.972656-14.285156 12.621093-2.324219 24.324218-1.601563 37.351562 1.722656 9.214844 5.203125 23.703125 16.339844 28.628906 31.378906 7.449219 22.808594-13.113281 56.902344-23.050781 70.035156-13.644531 18.171875 8.433594 37.847656 24.6875 15.882813 8.496094-11.445313 23.363281-43.835938 18.195313-67.863281-3.019532-13.621094-7.046876-23.554688-23.007813-37.195313 2.960937 1.746094 5.835937 3.726563 8.621094 5.941406 37.089843 34.550781 32.785156 87.964844 6.863281 116.601563zm0 0"/></g></svg>

<svg xmlns="http://www.w3.org/2000/svg" xmlns:xlink="http://www.w3.org/1999/xlink" width="250px" height="250px" viewBox="0 0 250 250" version="1.1">
<defs>
<linearGradient id="linear0" gradientUnits="userSpaceOnUse" x1="100" y1="300" x2="500" y2="300" gradientTransform="matrix(0.416667,0,0,0.416667,0,0)">
<stop offset="0" style="stop-color:rgb(0%,50.980395%,98.039216%);stop-opacity:1;"/>
<stop offset="1" style="stop-color:rgb(0%,94.901961%,99.607843%);stop-opacity:1;"/>
</linearGradient>
<linearGradient id="linear1" gradientUnits="userSpaceOnUse" x1="100" y1="300" x2="500" y2="300" gradientTransform="matrix(0.416667,0,0,0.416667,0,0)">
<stop offset="0" style="stop-color:rgb(0%,50.980395%,98.039216%);stop-opacity:1;"/>
<stop offset="1" style="stop-color:rgb(0%,94.901961%,99.607843%);stop-opacity:1;"/>
</linearGradient>
</defs>
<g id="surface1">
<path style=" stroke:none;fill-rule:nonzero;fill:url(#linear0);" d="M 61.875 70.472656 C 62.910156 69.171875 64.003906 67.921875 65.101562 66.667969 C 65.152344 66.605469 65.261719 66.59375 65.3125 66.53125 C 65.410156 66.410156 65.570312 66.332031 65.667969 66.210938 L 65.769531 66.085938 C 66.53125 65.378906 67.347656 64.609375 68.285156 63.941406 C 71.601562 61.421875 75.046875 59.507812 78.675781 58.246094 C 90.324219 54.160156 103.289062 56.679688 113.457031 66.277344 C 127.652344 79.585938 126.382812 101.019531 115.046875 115.269531 C 100.726562 136.511719 76.117188 166.144531 110.191406 192.691406 C 116.320312 197.464844 120.863281 201.402344 140.164062 206.976562 C 127.542969 209.300781 115.839844 208.578125 102.8125 205.253906 C 93.597656 200.050781 79.109375 188.914062 74.183594 173.875 C 66.734375 151.066406 87.296875 116.972656 97.234375 103.839844 C 110.878906 85.667969 88.800781 65.992188 72.546875 87.957031 C 64.050781 99.402344 49.183594 131.792969 54.351562 155.820312 C 57.371094 169.441406 61.398438 179.375 77.359375 193.015625 C 74.398438 191.269531 71.523438 189.289062 68.738281 187.074219 C 31.648438 152.523438 35.953125 99.109375 61.875 70.472656 Z M 61.875 70.472656 "/>
<path style=" stroke:none;fill-rule:nonzero;fill:url(#linear1);" d="M 188.125 179.527344 C 187.089844 180.828125 185.996094 182.078125 184.898438 183.332031 C 184.847656 183.394531 184.738281 183.40625 184.6875 183.46875 C 184.589844 183.589844 184.429688 183.667969 184.332031 183.789062 L 184.230469 183.914062 C 183.46875 184.621094 182.652344 185.390625 181.714844 186.058594 C 178.398438 188.578125 174.953125 190.492188 171.324219 191.753906 C 159.675781 195.839844 146.710938 193.320312 136.542969 183.722656 C 122.347656 170.414062 123.617188 148.980469 134.953125 134.730469 C 149.273438 113.488281 173.882812 83.855469 139.808594 57.308594 C 133.679688 52.535156 129.136719 48.597656 109.835938 43.023438 C 122.457031 40.699219 134.160156 41.421875 147.1875 44.746094 C 156.402344 49.949219 170.890625 61.085938 175.816406 76.125 C 183.265625 98.933594 162.703125 133.027344 152.765625 146.160156 C 139.121094 164.332031 161.199219 184.007812 177.453125 162.042969 C 185.949219 150.597656 200.816406 118.207031 195.648438 94.179688 C 192.628906 80.558594 188.601562 70.625 172.640625 56.984375 C 175.601562 58.730469 178.476562 60.710938 181.261719 62.925781 C 218.351562 97.476562 214.046875 150.890625 188.125 179.527344 Z M 188.125 179.527344 "/>
</g>
</svg>
